X: 33
T:Wind That Blows The Barley,The. HS.33
M:C|
Q:200
C:"A Reel"
S:Henry Stables MS,Cumbria,late19thC
R:Reel
O:Walthwaite,nr.Ambleside.
A:England
Z:vmp.Chris Partington
K:D
A2AB AFDA|B2BA BcdB|A2AB AFDA|gefdB2d2::!
f2fdg2ge|f2fd eAce|f2fd g2gb aged|B2d2:||
